public/img/wavy.svg

<svg width="21" height="10" viewBox="0 0 21 10" fill="none" xmlns="http://www.w3.org/2000/svg">
<path d="M21 5.97959L20.9884 5.96591L21 5.94766L20.7042 5.60097L18.6349 2.96432C18.6349 2.96432 18.5983 3.01678 18.5385 3.09433L18.4837 3.17644C18.0116 3.78086 16.4992 5.53027 14.7241 5.56448C14.6859 5.56448 14.6476 5.56448 14.6094 5.56448C13.6753 5.42535 12.7645 4.73653 11.8404 3.46154C10.3064 1.3358 8.59945 0.188533 6.76288 0.0357165C6.71136 0.0357165 6.65983 0.0357165 6.60997 0.0357165C6.33368 0.00210589 6.05613 -0.0077964 5.77895 0.00606615C3.0133 0.161163 0.959003 2.70658 0.260942 3.68735C0.111357 3.87209 0.0216066 4.00438 0.00166205 4.02719L0.0116343 4.04088C0.00859992 4.04855 0.00466966 4.05548 0 4.0614L0.295845 4.40353L2.3651 7.04247L2.4615 6.91018L2.51634 6.82807C2.9867 6.22136 4.50083 4.47196 6.2759 4.44002C6.31413 4.44002 6.35069 4.44002 6.38892 4.44002C7.32465 4.57916 8.2338 5.26797 9.1579 6.54296C10.6936 8.65958 12.3972 9.80685 14.2338 9.96423C14.2837 9.96423 14.3352 9.96423 14.3867 9.96423C14.663 9.99793 14.9405 10.0078 15.2177 9.99387C17.9834 9.83878 20.0377 7.29564 20.7357 6.31488C20.8803 6.12329 20.9717 5.99328 20.99 5.96591" fill="#F29400"/>
</svg>

<svg width="21" height="10" fill="none" xmlns="http://www.w3.org/2000/svg"><path d="M21 5.98l-.012-.014.012-.018-.296-.347-2.07-2.637s-.036.053-.096.13l-.054.082c-.472.605-1.985 2.354-3.76 2.388h-.115c-.934-.139-1.845-.827-2.769-2.102C10.306 1.336 8.6.189 6.763.036H6.61a4.864 4.864 0 00-.831-.03C3.013.161.959 2.706.261 3.687c-.15.185-.24.317-.26.34l.01.014A.082.082 0 010 4.06l.296.343 2.07 2.638.095-.132.055-.082c.47-.607 1.985-2.356 3.76-2.388h.113c.936.14 1.845.828 2.769 2.103 1.536 2.117 3.24 3.264 5.076 3.421h.153c.276.034.553.044.83.03 2.766-.155 4.82-2.698 5.519-3.68.144-.19.236-.32.254-.348" fill="#F29400"/></svg>
